img/part3/電子秤.svg

<svg width="515" height="321" fill="none" xmlns="http://www.w3.org/2000/svg"><path d="m346.89 165.45 156.94-78.3V74.21s-1.02-2.04-8.51-3.06l-238.3-58.21s-4.43-1.36-7.83 0L84.43 61.28s-6.13 7.83-6.13 10.21v7.15l195.74 65.02 65.36 21.79s3.67 1.9 7.49 0Z" stroke="#F1F1F1" stroke-miterlimit="10"/><path d="m78.3 71.49 263.49 86.47s6.81-4.43 8.85-11.57l148.77-70.13M350.64 146.38 84.43 61.28M341.79 157.96v8.21M99.24 85.59v11.09l239.14 82.38 1.02-13.61" stroke="#F1F1F1" stroke-miterlimit="10"/><path d="m485.44 96.32 10.9 3.42s7.83 1.36-2.72 7.49l-154.21 75.91-60.6 119.15v6.13L20.77 192.68v-3.4L78.3 93.96l13.62-4.65s2.63-.81 7.33-1.48M99.24 91.23l-10.05 4.43M78.3 93.96l261.1 89.19" stroke="#F1F1F1" stroke-miterlimit="10"/><path d="M499.12 101.78s1.98-1.36 2.67 7.16l3.4 29.62s1.08 7.83-3.03 11.57l-147.77 87.49-20.77 40.51-54.81 30.3" stroke="#F1F1F1" stroke-miterlimit="10"/><path d="M504.84 135.45s-2.03 2.42-5.43 5.14c-3.4 2.72-150.13 84.77-150.13 84.77l-28.16 59.68" stroke="#F1F1F1" stroke-miterlimit="10"/><path d="M363.38 232.29V240s-1.82 4.11-13.09 5.61" stroke="#F1F1F1" stroke-miterlimit="10"/><path d="M361.36 242.04v5.11s-2.29 7.25-15.42 6.95M369.34 228.76l7.63 3.53s4.72.63 7.02-1.77l51.32-30.61 1.09-10.86M377.63 223.85v8.44M397.3 212.21v10.38M420.53 198.45v9.76M455.78 177.59l-.55 8.41s-4.07 6.13-18.82 7.53" stroke="#F1F1F1" stroke-miterlimit="10"/><path d="M452.74 188.33v5.2s-3.79 5.78-17.28 4.92M178.98 218.37 68.2 171.87a2.414 2.414 0 0 1-1.17-3.5l21.91-36.04c.61-1 1.84-1.43 2.94-1.03l112.01 42.91c1.4.51 2.02 2.13 1.31 3.43l-23.14 39.63a2.458 2.458 0 0 1-3.08 1.09v.01ZM86.183 192.726c1.454-1.273 1.844-3.208.87-4.322-.975-1.114-2.945-.985-4.4.287-1.455 1.273-1.844 3.208-.87 4.322.975 1.114 2.945.985 4.4-.287Z" stroke="#F1F1F1" stroke-miterlimit="10"/><path d="m84.43 174.85.85-6.51 5.78 3.26-6.63 3.25ZM166.87 180.01l-1.47 1.11.23-1.5 6.33-9.48 1.47-1.11-.23 1.5-6.33 9.48Zm-8.62 12.91-1.49 1.14.25-1.53 6.31-9.46 1.47-1.11-.23 1.5-6.31 9.46Zm19.86-23-1.49 1.03-2.8-.88.12-1.39 1.49-1.03 2.8.88-.12 1.39Zm-17.28 25.88-1.49 1.03-2.8-.88.12-1.39 1.49-1.03 2.8.88-.12 1.39Zm21.85-24.45-1.49 1.03-2.8-.88.12-1.39 1.49-1.03 2.8.88-.12 1.39Zm-17.28 25.88-1.49 1.03-2.8-.88.12-1.39 1.5-1.03 2.8.88-.12 1.39h-.01Zm10.59-14.36-1.47 1.11.23-1.5 6.37-9.54 1.47-1.11-.23 1.5-6.37 9.54Zm-8.62 12.91-1.49 1.14.25-1.53 6.31-9.46 1.47-1.11-.23 1.5-6.31 9.45v.01ZM152.44 174.01l-1.47 1.11.23-1.5 6.33-9.48 1.47-1.11-.23 1.5-6.33 9.48Zm-8.62 12.91-1.49 1.14.25-1.53 6.31-9.46 1.47-1.11-.23 1.5-6.31 9.46Zm19.86-23-1.49 1.03-2.8-.88.12-1.39 1.49-1.03 2.8.88-.12 1.39ZM146.4 189.8l-1.49 1.03-2.8-.88.12-1.39 1.49-1.03 2.8.88-.12 1.39Zm21.85-24.45-1.49 1.03-2.8-.88.12-1.39 1.49-1.03 2.8.88-.12 1.39Zm-17.28 25.88-1.49 1.03-2.8-.88.12-1.39 1.5-1.03 2.8.88-.12 1.39h-.01Zm10.59-14.36-1.47 1.11.23-1.5 6.37-9.54 1.47-1.11-.23 1.5-6.37 9.54Zm-8.62 12.91-1.49 1.14.25-1.53 6.31-9.46 1.47-1.11-.23 1.5-6.31 9.45v.01ZM137.28 168.01l-1.47 1.11.23-1.5 6.33-9.48 1.47-1.11-.23 1.5-6.33 9.48Zm-8.62 12.91-1.49 1.14.25-1.53 6.31-9.46 1.47-1.11-.23 1.5-6.31 9.46Zm19.86-23-1.49 1.03-2.8-.88.12-1.39 1.49-1.03 2.8.88-.12 1.39Zm-17.28 25.88-1.49 1.03-2.8-.88.12-1.39 1.49-1.03 2.8.88-.12 1.39Zm21.85-24.45-1.49 1.03-2.8-.88.12-1.39 1.49-1.03 2.8.88-.12 1.39Zm-17.28 25.88-1.49 1.03-2.8-.88.12-1.39 1.5-1.03 2.8.88-.12 1.39h-.01Zm10.59-14.36-1.47 1.11.23-1.5 6.37-9.54 1.47-1.11-.23 1.5-6.37 9.54Zm-8.62 12.91-1.49 1.14.25-1.53 6.31-9.46 1.47-1.11-.23 1.5-6.31 9.45v.01ZM121.9 162.64l-1.47 1.11.23-1.5 6.33-9.48 1.47-1.11-.23 1.5-6.33 9.48Zm-8.62 12.91-1.49 1.14.25-1.53 6.31-9.46 1.47-1.11-.23 1.5-6.31 9.46Zm19.86-23-1.49 1.03-2.8-.88.12-1.39 1.49-1.03 2.8.88-.12 1.39Zm-17.28 25.88-1.49 1.03-2.8-.88.12-1.39 1.49-1.03 2.8.88-.12 1.39Zm21.85-24.45-1.49 1.03-2.8-.88.12-1.39 1.49-1.03 2.8.88-.12 1.39Zm-17.28 25.88-1.49 1.03-2.8-.88.12-1.39 1.5-1.03 2.8.88-.12 1.39h-.01Zm10.59-14.36-1.47 1.11.23-1.5 6.37-9.54 1.47-1.11-.23 1.5-6.37 9.54Zm-8.62 12.91-1.49 1.14.25-1.53 6.31-9.46 1.47-1.11-.23 1.5-6.31 9.45v.01ZM124.94 180.5h-2.08v2.08h2.08v-2.08Z" fill="#F1F1F1"/><path d="m182.19 247.34-148-65.94a1.959 1.959 0 0 1-.88-2.79l44.16-73.4a1.95 1.95 0 0 1 2.34-.83l150.64 54.68a1.95 1.95 0 0 1 1.04 2.78l-46.79 84.67c-.49.89-1.58 1.25-2.51.84v-.01ZM195.66 249.29l47.28-84.47a2.392 2.392 0 0 1 2.91-1.08l77.33 28.29c1.38.5 1.98 2.11 1.28 3.4l-49.03 89.95c-.6 1.1-1.94 1.55-3.08 1.04l-75.58-33.77a2.391 2.391 0 0 1-1.11-3.36Z" stroke="#F1F1F1" stroke-miterlimit="10"/><path d="m234.79 185.24 7.51-13.51c.25-.45.79-.64 1.27-.46l19.88 7.57c.57.22.83.88.55 1.43l-7.06 13.87c-.24.47-.8.68-1.29.49l-20.33-7.93c-.58-.23-.83-.91-.53-1.46ZM260.09 194.93l7.93-13.51c.26-.45.83-.64 1.34-.46l21.01 7.57c.6.22.88.88.58 1.43l-7.46 13.87c-.25.47-.84.68-1.36.49l-21.48-7.93c-.61-.23-.87-.91-.56-1.46ZM286.66 204.97l8.01-13.51c.27-.45.84-.64 1.35-.46l21.22 7.57c.61.22.88.88.59 1.43l-7.53 13.87c-.26.47-.85.68-1.38.49l-21.7-7.93c-.62-.23-.88-.91-.56-1.46ZM223.86 205.58l7.51-13.51c.25-.45.79-.64 1.27-.46l18.6 7.39c.57.22.83.88.55 1.43l-7.06 13.87c-.24.47-.8.68-1.29.49l-19.05-7.75c-.58-.23-.83-.91-.53-1.46ZM247.88 215.09l7.93-13.51c.26-.45.83-.64 1.34-.46l21.01 7.57c.6.22.88.88.58 1.43l-7.46 13.87c-.25.47-.84.68-1.36.49l-21.48-7.93c-.61-.23-.87-.91-.56-1.46ZM274.46 225.13l8.01-13.51c.27-.45.84-.64 1.35-.46l21.22 7.57c.61.22.88.88.59 1.43l-7.53 13.87c-.26.47-.85.68-1.38.49l-21.7-7.93c-.62-.23-.88-.91-.56-1.46ZM212.19 225.61l7.9-13.28c.26-.44.81-.62 1.28-.42l19.65 8.15c.57.23.8.91.51 1.44l-7.46 13.66c-.25.46-.82.66-1.3.45l-20.09-8.53c-.57-.24-.8-.94-.48-1.47h-.01ZM237 236.6l7.03-14.08c.28-.44.85-.62 1.35-.42l22.27 8.43c.6.24.85.91.54 1.44l-7.86 13.65c-.27.46-.86.66-1.38.45l-21.44-8c-.61-.24-.85-.94-.51-1.47ZM263.47 246.85l7.17-13.52c.28-.44.86-.62 1.36-.42l22.23 8.44c.6.24.86.91.55 1.44l-7.94 13.65c-.27.46-.87.66-1.39.45l-21.46-8.57c-.61-.24-.86-.94-.52-1.47ZM200.37 246.07l7.9-13.28c.26-.44.81-.62 1.28-.42l19.65 8.15c.57.23.8.91.51 1.44l-7.46 13.66c-.25.46-.82.66-1.3.45l-20.09-8.53c-.57-.24-.8-.94-.48-1.47h-.01ZM225.38 256.5l8.32-13.27c.28-.44.85-.62 1.35-.42l20.78 8.18c.6.24.85.91.54 1.44l-7.86 13.65c-.27.46-.86.66-1.38.45l-21.24-8.56c-.61-.24-.85-.94-.51-1.47ZM251.72 267.74l7.66-13.95c.28-.44.86-.62 1.36-.42l21.67 8.44c.6.24.86.91.55 1.44l-7.94 14.18c-.27.46-.87.66-1.39.45l-21.39-8.67c-.61-.24-.86-.94-.52-1.47ZM186.04 171.21l-2.38 4.95M187.23 173.68l-2.38 1.17 1.19 1.84M190.47 177.6s-2.55-.29-2.38-1.71c0 0 .85-2.01 2.38-1.03 0 0 2.38.25 0 2.74Z" stroke="#F1F1F1" stroke-miterlimit="10"/><path d="M186.04 179.46s2.21 3.64 4.43-1.87" stroke="#F1F1F1" stroke-miterlimit="10"/></svg>

<svg width="515" height="321" viewBox="0 0 515 321" fill="none" xmlns="http://www.w3.org/2000/svg">
<path d="M346.89 165.45L503.83 87.1499V74.2099C503.83 74.2099 502.81 72.1699 495.32 71.1499L257.02 12.9399C257.02 12.9399 252.59 11.5799 249.19 12.9399L84.4298 61.2799C84.4298 61.2799 78.2998 69.1099 78.2998 71.4899V78.6399L274.04 143.66L339.4 165.45C339.4 165.45 343.07 167.35 346.89 165.45V165.45Z" stroke="#F1F1F1" stroke-miterlimit="10"/>
<path d="M78.2998 71.49L341.79 157.96C341.79 157.96 348.6 153.53 350.64 146.39L499.41 76.26" stroke="#F1F1F1" stroke-miterlimit="10"/>
<path d="M350.64 146.38L84.4302 61.28" stroke="#F1F1F1" stroke-miterlimit="10"/>
<path d="M341.79 157.96V166.17" stroke="#F1F1F1" stroke-miterlimit="10"/>
<path d="M99.2402 85.5901V96.6801L338.38 179.06L339.4 165.45" stroke="#F1F1F1" stroke-miterlimit="10"/>
<path d="M485.44 96.3201L496.34 99.7401C496.34 99.7401 504.17 101.1 493.62 107.23L339.41 183.14L278.81 302.29V308.42L20.77 192.68V189.28L78.3 93.9601L91.92 89.3101C91.92 89.3101 94.55 88.5001 99.25 87.8301" stroke="#F1F1F1" stroke-miterlimit="10"/>
<path d="M99.2399 91.23L89.1899 95.66" stroke="#F1F1F1" stroke-miterlimit="10"/>
<path d="M78.2998 93.96L339.4 183.15" stroke="#F1F1F1" stroke-miterlimit="10"/>
<path d="M499.12 101.78C499.12 101.78 501.1 100.42 501.79 108.94L505.19 138.56C505.19 138.56 506.27 146.39 502.16 150.13L354.39 237.62L333.62 278.13L278.81 308.43" stroke="#F1F1F1" stroke-miterlimit="10"/>
<path d="M504.84 135.45C504.84 135.45 502.81 137.87 499.41 140.59C496.01 143.31 349.28 225.36 349.28 225.36L321.12 285.04" stroke="#F1F1F1" stroke-miterlimit="10"/>
<path d="M363.38 232.29V240C363.38 240 361.56 244.11 350.29 245.61" stroke="#F1F1F1" stroke-miterlimit="10"/>
<path d="M361.36 242.04V247.15C361.36 247.15 359.07 254.4 345.94 254.1" stroke="#F1F1F1" stroke-miterlimit="10"/>
<path d="M369.34 228.76L376.97 232.29C376.97 232.29 381.69 232.92 383.99 230.52L435.31 199.91L436.4 189.05" stroke="#F1F1F1" stroke-miterlimit="10"/>
<path d="M377.63 223.85V232.29" stroke="#F1F1F1" stroke-miterlimit="10"/>
<path d="M397.3 212.21V222.59" stroke="#F1F1F1" stroke-miterlimit="10"/>
<path d="M420.53 198.45V208.21" stroke="#F1F1F1" stroke-miterlimit="10"/>
<path d="M455.78 177.59L455.23 186C455.23 186 451.16 192.13 436.41 193.53" stroke="#F1F1F1" stroke-miterlimit="10"/>
<path d="M452.74 188.33V193.53C452.74 193.53 448.95 199.31 435.46 198.45" stroke="#F1F1F1" stroke-miterlimit="10"/>
<path d="M178.98 218.37L68.2001 171.87C66.8101 171.31 66.2501 169.65 67.0301 168.37L88.9401 132.33C89.5501 131.33 90.7801 130.9 91.8801 131.3L203.89 174.21C205.29 174.72 205.91 176.34 205.2 177.64L182.06 217.27C181.46 218.36 180.14 218.83 178.98 218.36V218.37Z" stroke="#F1F1F1" stroke-miterlimit="10"/>
<path d="M86.1825 192.726C87.6373 191.453 88.0267 189.518 87.0521 188.404C86.0776 187.29 84.1082 187.419 82.6533 188.691C81.1984 189.964 80.8091 191.899 81.7836 193.013C82.7582 194.127 84.7276 193.998 86.1825 192.726Z" stroke="#F1F1F1" stroke-miterlimit="10"/>
<path d="M84.4302 174.85L85.2802 168.34L91.0602 171.6L84.4302 174.85Z" fill="#F1F1F1"/>
<path d="M166.87 180.01L165.4 181.12L165.63 179.62L171.96 170.14L173.43 169.03L173.2 170.53L166.87 180.01ZM158.25 192.92L156.76 194.06L157.01 192.53L163.32 183.07L164.79 181.96L164.56 183.46L158.25 192.92V192.92ZM178.11 169.92L176.62 170.95L173.82 170.07L173.94 168.68L175.43 167.65L178.23 168.53L178.11 169.92ZM160.83 195.8L159.34 196.83L156.54 195.95L156.66 194.56L158.15 193.53L160.95 194.41L160.83 195.8ZM182.68 171.35L181.19 172.38L178.39 171.5L178.51 170.11L180 169.08L182.8 169.96L182.68 171.35ZM165.4 197.23L163.91 198.26L161.11 197.38L161.23 195.99L162.73 194.96L165.53 195.84L165.41 197.23H165.4ZM175.99 182.87L174.52 183.98L174.75 182.48L181.12 172.94L182.59 171.83L182.36 173.33L175.99 182.87ZM167.37 195.78L165.88 196.92L166.13 195.39L172.44 185.93L173.91 184.82L173.68 186.32L167.37 195.77V195.78Z" fill="#F1F1F1"/>
<path d="M152.44 174.01L150.97 175.12L151.2 173.62L157.53 164.14L159 163.03L158.77 164.53L152.44 174.01ZM143.82 186.92L142.33 188.06L142.58 186.53L148.89 177.07L150.36 175.96L150.13 177.46L143.82 186.92V186.92ZM163.68 163.92L162.19 164.95L159.39 164.07L159.51 162.68L161 161.65L163.8 162.53L163.68 163.92ZM146.4 189.8L144.91 190.83L142.11 189.95L142.23 188.56L143.72 187.53L146.52 188.41L146.4 189.8ZM168.25 165.35L166.76 166.38L163.96 165.5L164.08 164.11L165.57 163.08L168.37 163.96L168.25 165.35ZM150.97 191.23L149.48 192.26L146.68 191.38L146.8 189.99L148.3 188.96L151.1 189.84L150.98 191.23H150.97ZM161.56 176.87L160.09 177.98L160.32 176.48L166.69 166.94L168.16 165.83L167.93 167.33L161.56 176.87ZM152.94 189.78L151.45 190.92L151.7 189.39L158.01 179.93L159.48 178.82L159.25 180.32L152.94 189.77V189.78Z" fill="#F1F1F1"/>
<path d="M137.28 168.01L135.81 169.12L136.04 167.62L142.37 158.14L143.84 157.03L143.61 158.53L137.28 168.01ZM128.66 180.92L127.17 182.06L127.42 180.53L133.73 171.07L135.2 169.96L134.97 171.46L128.66 180.92V180.92ZM148.52 157.92L147.03 158.95L144.23 158.07L144.35 156.68L145.84 155.65L148.64 156.53L148.52 157.92ZM131.24 183.8L129.75 184.83L126.95 183.95L127.07 182.56L128.56 181.53L131.36 182.41L131.24 183.8ZM153.09 159.35L151.6 160.38L148.8 159.5L148.92 158.11L150.41 157.08L153.21 157.96L153.09 159.35ZM135.81 185.23L134.32 186.26L131.52 185.38L131.64 183.99L133.14 182.96L135.94 183.84L135.82 185.23H135.81ZM146.4 170.87L144.93 171.98L145.16 170.48L151.53 160.94L153 159.83L152.77 161.33L146.4 170.87ZM137.78 183.78L136.29 184.92L136.54 183.39L142.85 173.93L144.32 172.82L144.09 174.32L137.78 183.77V183.78Z" fill="#F1F1F1"/>
<path d="M121.9 162.64L120.43 163.75L120.66 162.25L126.99 152.77L128.46 151.66L128.23 153.16L121.9 162.64V162.64ZM113.28 175.55L111.79 176.69L112.04 175.16L118.35 165.7L119.82 164.59L119.59 166.09L113.28 175.55V175.55ZM133.14 152.55L131.65 153.58L128.85 152.7L128.97 151.31L130.46 150.28L133.26 151.16L133.14 152.55ZM115.86 178.43L114.37 179.46L111.57 178.58L111.69 177.19L113.18 176.16L115.98 177.04L115.86 178.43ZM137.71 153.98L136.22 155.01L133.42 154.13L133.54 152.74L135.03 151.71L137.83 152.59L137.71 153.98ZM120.43 179.86L118.94 180.89L116.14 180.01L116.26 178.62L117.76 177.59L120.56 178.47L120.44 179.86H120.43ZM131.02 165.5L129.55 166.61L129.78 165.11L136.15 155.57L137.62 154.46L137.39 155.96L131.02 165.5ZM122.4 178.41L120.91 179.55L121.16 178.02L127.47 168.56L128.94 167.45L128.71 168.95L122.4 178.4V178.41Z" fill="#F1F1F1"/>
<path d="M124.94 180.5H122.86V182.58H124.94V180.5Z" fill="#F1F1F1"/>
<path d="M182.19 247.34L34.19 181.4C33.12 180.92 32.71 179.61 33.31 178.61L77.47 105.21C77.95 104.41 78.93 104.06 79.81 104.38L230.45 159.06C231.58 159.47 232.07 160.79 231.49 161.84L184.7 246.51C184.21 247.4 183.12 247.76 182.19 247.35V247.34Z" stroke="#F1F1F1" stroke-miterlimit="10"/>
<path d="M195.66 249.29L242.94 164.82C243.51 163.79 244.75 163.34 245.85 163.74L323.18 192.03C324.56 192.53 325.16 194.14 324.46 195.43L275.43 285.38C274.83 286.48 273.49 286.93 272.35 286.42L196.77 252.65C195.48 252.08 194.97 250.52 195.66 249.29V249.29Z" stroke="#F1F1F1" stroke-miterlimit="10"/>
<path d="M234.79 185.24L242.3 171.73C242.55 171.28 243.09 171.09 243.57 171.27L263.45 178.84C264.02 179.06 264.28 179.72 264 180.27L256.94 194.14C256.7 194.61 256.14 194.82 255.65 194.63L235.32 186.7C234.74 186.47 234.49 185.79 234.79 185.24Z" stroke="#F1F1F1" stroke-miterlimit="10"/>
<path d="M260.09 194.93L268.02 181.42C268.28 180.97 268.85 180.78 269.36 180.96L290.37 188.53C290.97 188.75 291.25 189.41 290.95 189.96L283.49 203.83C283.24 204.3 282.65 204.51 282.13 204.32L260.65 196.39C260.04 196.16 259.78 195.48 260.09 194.93V194.93Z" stroke="#F1F1F1" stroke-miterlimit="10"/>
<path d="M286.66 204.97L294.67 191.46C294.94 191.01 295.51 190.82 296.02 191L317.24 198.57C317.85 198.79 318.12 199.45 317.83 200L310.3 213.87C310.04 214.34 309.45 214.55 308.92 214.36L287.22 206.43C286.6 206.2 286.34 205.52 286.66 204.97Z" stroke="#F1F1F1" stroke-miterlimit="10"/>
<path d="M223.86 205.58L231.37 192.07C231.62 191.62 232.16 191.43 232.64 191.61L251.24 199C251.81 199.22 252.07 199.88 251.79 200.43L244.73 214.3C244.49 214.77 243.93 214.98 243.44 214.79L224.39 207.04C223.81 206.81 223.56 206.13 223.86 205.58Z" stroke="#F1F1F1" stroke-miterlimit="10"/>
<path d="M247.88 215.09L255.81 201.58C256.07 201.13 256.64 200.94 257.15 201.12L278.16 208.69C278.76 208.91 279.04 209.57 278.74 210.12L271.28 223.99C271.03 224.46 270.44 224.67 269.92 224.48L248.44 216.55C247.83 216.32 247.57 215.64 247.88 215.09V215.09Z" stroke="#F1F1F1" stroke-miterlimit="10"/>
<path d="M274.46 225.13L282.47 211.62C282.74 211.17 283.31 210.98 283.82 211.16L305.04 218.73C305.65 218.95 305.92 219.61 305.63 220.16L298.1 234.03C297.84 234.5 297.25 234.71 296.72 234.52L275.02 226.59C274.4 226.36 274.14 225.68 274.46 225.13Z" stroke="#F1F1F1" stroke-miterlimit="10"/>
<path d="M212.19 225.61L220.09 212.33C220.35 211.89 220.9 211.71 221.37 211.91L241.02 220.06C241.59 220.29 241.82 220.97 241.53 221.5L234.07 235.16C233.82 235.62 233.25 235.82 232.77 235.61L212.68 227.08C212.11 226.84 211.88 226.14 212.2 225.61H212.19Z" stroke="#F1F1F1" stroke-miterlimit="10"/>
<path d="M237 236.6L244.03 222.52C244.31 222.08 244.88 221.9 245.38 222.1L267.65 230.53C268.25 230.77 268.5 231.44 268.19 231.97L260.33 245.62C260.06 246.08 259.47 246.28 258.95 246.07L237.51 238.07C236.9 237.83 236.66 237.13 237 236.6Z" stroke="#F1F1F1" stroke-miterlimit="10"/>
<path d="M263.47 246.85L270.64 233.33C270.92 232.89 271.5 232.71 272 232.91L294.23 241.35C294.83 241.59 295.09 242.26 294.78 242.79L286.84 256.44C286.57 256.9 285.97 257.1 285.45 256.89L263.99 248.32C263.38 248.08 263.13 247.38 263.47 246.85V246.85Z" stroke="#F1F1F1" stroke-miterlimit="10"/>
<path d="M200.37 246.07L208.27 232.79C208.53 232.35 209.08 232.17 209.55 232.37L229.2 240.52C229.77 240.75 230 241.43 229.71 241.96L222.25 255.62C222 256.08 221.43 256.28 220.95 256.07L200.86 247.54C200.29 247.3 200.06 246.6 200.38 246.07H200.37Z" stroke="#F1F1F1" stroke-miterlimit="10"/>
<path d="M225.38 256.5L233.7 243.23C233.98 242.79 234.55 242.61 235.05 242.81L255.83 250.99C256.43 251.23 256.68 251.9 256.37 252.43L248.51 266.08C248.24 266.54 247.65 266.74 247.13 266.53L225.89 257.97C225.28 257.73 225.04 257.03 225.38 256.5V256.5Z" stroke="#F1F1F1" stroke-miterlimit="10"/>
<path d="M251.72 267.74L259.38 253.79C259.66 253.35 260.24 253.17 260.74 253.37L282.41 261.81C283.01 262.05 283.27 262.72 282.96 263.25L275.02 277.43C274.75 277.89 274.15 278.09 273.63 277.88L252.24 269.21C251.63 268.97 251.38 268.27 251.72 267.74V267.74Z" stroke="#F1F1F1" stroke-miterlimit="10"/>
<path d="M186.04 171.21L183.66 176.16" stroke="#F1F1F1" stroke-miterlimit="10"/>
<path d="M187.23 173.68L184.85 174.85L186.04 176.69" stroke="#F1F1F1" stroke-miterlimit="10"/>
<path d="M190.47 177.6C190.47 177.6 187.92 177.31 188.09 175.89C188.09 175.89 188.94 173.88 190.47 174.86C190.47 174.86 192.85 175.11 190.47 177.6Z" stroke="#F1F1F1" stroke-miterlimit="10"/>
<path d="M186.04 179.46C186.04 179.46 188.25 183.1 190.47 177.59" stroke="#F1F1F1" stroke-miterlimit="10"/>
</svg>
